docs/.vuepress/public/ol-logo-color.svg

<?xml version="1.0" encoding="UTF-8"?>
<svg width="50px" height="50px" viewBox="0 0 50 50" version="1.1" xmlns="http://www.w3.org/2000/svg" xmlns:xlink="http://www.w3.org/1999/xlink">
    <!-- Generator: Sketch 51.2 (57519) - http://www.bohemiancoding.com/sketch -->
    <title>logo-circle</title>
    <desc>Created with Sketch.</desc>
    <defs></defs>
    <g id="Page-1" stroke="none" stroke-width="1" fill="none" fill-rule="evenodd">
        <g id="logo-circle" fill-rule="nonzero">
            <path d="M11.1439062,33.0155328 C10.3806129,33.0155328 9.64304854,32.6024519 9.25711372,31.8795603 C4.79742247,23.4200078 6.33258542,13.1962557 13.0735803,6.42345017 C19.8231515,-0.349355336 30.0118307,-1.88980284 38.4423624,2.59384604 C39.4800983,3.14462057 39.8746094,4.43549836 39.3257244,5.48541231 C38.7768393,6.5267204 37.4903899,6.92258959 36.4440777,6.37181506 C29.6773539,2.77456893 21.4955357,4.01381162 16.0752955,9.45271007 C10.6550554,14.8916085 9.42864031,23.1015913 13.0049696,29.8916085 C13.5538547,30.9329166 13.1593436,32.2237944 12.1216077,32.7831748 C11.8214362,32.9294743 11.478383,33.0155328 11.1439062,33.0155328 Z" id="Shape" fill="#37C3DD"></path>
            <path d="M28.3737518,43.4286137 C24.9346437,43.4286137 21.4612304,42.593846 18.2451069,40.8898873 C17.207371,40.3391128 16.8128599,39.048235 17.3617449,37.9983211 C17.91063,36.957013 19.1970794,36.5611438 20.2348153,37.1119183 C27.0015391,40.7091645 35.1833573,39.4699218 40.6035974,34.0310233 C46.0238376,28.5921249 47.258829,20.3821421 43.6739233,13.5921249 C43.1250383,12.5508168 43.5195494,11.259939 44.5572852,10.7005586 C45.5950211,10.1497841 46.8814705,10.5456533 47.4389319,11.5869614 C51.8986232,20.0465139 50.3634602,30.270266 43.6224654,37.0430715 C39.4372166,41.2427273 33.9483659,43.4286137 28.3737518,43.4286137 Z" id="Shape" fill="#076AD2"></path>
            <path d="M17.4732372,28.8503004 C16.9243521,28.8503004 16.4011961,28.5577015 16.1267535,28.0413503 C13.2965648,22.6799046 14.2742664,16.199698 18.5452784,11.9053779 C22.8248667,7.61105775 29.2828427,6.63859647 34.6258959,9.47852762 C35.3720365,9.87439682 35.6464791,10.795223 35.2605443,11.5439321 C34.8660331,12.2926412 33.9483659,12.5680285 33.2022252,12.1807651 C29.0512818,9.96906119 24.0255528,10.734982 20.697937,14.0740526 C17.3703213,17.4131231 16.6156043,22.4561524 18.8111446,26.6213848 C19.2056557,27.361488 18.9226369,28.2909201 18.1764962,28.6867892 C17.9535117,28.7986653 17.7133744,28.8503004 17.4732372,28.8503004 Z" id="Shape" fill="#FEDD3F"></path>
            <path d="M28.5538547,49.9604553 C21.2039405,49.9604553 13.9569422,47.0774949 8.45951509,41.552538 C-0.442714751,32.6196636 -2.46672847,19.1342935 3.42520978,7.98110938 C3.81972093,7.23240026 4.73738816,6.95701299 5.48352882,7.34427633 C6.22966947,7.74014552 6.51268834,8.66097169 6.11817719,9.40968081 C0.860887307,19.3666515 2.6704928,31.4234502 10.6207501,39.3924691 C18.5710074,47.3700939 30.5778684,49.1859287 40.5006815,43.9105414 C41.2382458,43.5146722 42.1644894,43.7986653 42.5590005,44.5473744 C42.9535117,45.2874777 42.6704928,46.2169097 41.9243521,46.6127789 C37.6704928,48.8589063 33.0907329,49.9604553 28.5538547,49.9604553 Z" id="Shape" fill="#FCBE79"></path>
        </g>
    </g>
</svg>

<svg width="50" height="50" xmlns="http://www.w3.org/2000/svg"><g fill-rule="nonzero" fill="none"><path d="M11.144 33.016c-.763 0-1.501-.414-1.887-1.136-4.46-8.46-2.924-18.684 3.817-25.457 6.75-6.772 16.938-8.313 25.368-3.83a2.144 2.144 0 0 1 .884 2.892 2.13 2.13 0 0 1-2.882.887c-6.767-3.597-14.948-2.358-20.369 3.08-5.42 5.44-6.646 13.65-3.07 20.44a2.149 2.149 0 0 1-.883 2.891c-.3.146-.644.233-.978.233z" fill="#37C3DD"/><path d="M28.374 43.429c-3.44 0-6.913-.835-10.129-2.54a2.144 2.144 0 0 1-.883-2.89 2.122 2.122 0 0 1 2.873-.887c6.767 3.597 14.948 2.358 20.369-3.081 5.42-5.439 6.655-13.649 3.07-20.439a2.149 2.149 0 0 1 .883-2.891 2.134 2.134 0 0 1 2.882.886c4.46 8.46 2.924 18.683-3.817 25.456-4.185 4.2-9.674 6.386-15.248 6.386z" fill="#076AD2"/><path d="M17.473 28.85a1.518 1.518 0 0 1-1.346-.809c-2.83-5.361-1.853-11.841 2.418-16.136 4.28-4.294 10.738-5.266 16.08-2.426a1.535 1.535 0 0 1 .636 2.065 1.524 1.524 0 0 1-2.059.637c-4.15-2.212-9.176-1.446-12.504 1.893a10.657 10.657 0 0 0-1.887 12.547 1.53 1.53 0 0 1-.635 2.066 1.56 1.56 0 0 1-.703.163z" fill="#FEDD3F"/><path d="M28.554 49.96c-7.35 0-14.597-2.883-20.094-8.407C-.443 32.62-2.467 19.134 3.425 7.98A1.524 1.524 0 1 1 6.118 9.41C.861 19.367 2.67 31.423 10.621 39.392c7.95 7.978 19.957 9.794 29.88 4.519a1.52 1.52 0 0 1 2.058.636 1.53 1.53 0 0 1-.635 2.066c-4.254 2.246-8.833 3.347-13.37 3.347z" fill="#FCBE79"/></g></svg>
